src/frontend_kids/assets/images/dc-thin-white.svg

<svg width="46" height="62" viewBox="0 0 46 62" fill="none" xmlns="http://www.w3.org/2000/svg">
<path d="M11.4756 62V14.3672H24.7906C28.6946 14.3672 32.195 15.2614 35.2921 17.0498C38.3891 18.8164 40.7991 21.3573 42.522 24.6724C44.2668 27.9875 45.1392 31.7606 45.1392 35.9917V40.3755C45.1392 44.6284 44.2777 48.4015 42.5547 51.6948C40.8318 54.9881 38.4 57.529 35.2593 59.3174C32.1405 61.1058 28.5528 62 24.4962 62H11.4756ZM15.4996 17.8022V58.5977H24.5289C29.5451 58.5977 33.5691 56.9401 36.6006 53.625C39.6322 50.2881 41.148 45.7843 41.148 40.1138V35.9263C41.148 30.452 39.654 26.0682 36.6661 22.7749C33.6781 19.4816 29.7414 17.8241 24.856 17.8022H15.4996Z" fill="#ffffff"/>
<path d="M24.2188 42.9766C23.8672 45.9844 22.7539 48.3086 20.8789 49.9492C19.0169 51.5768 16.5365 52.3906 13.4375 52.3906C10.0781 52.3906 7.38281 51.1862 5.35156 48.7773C3.33333 46.3685 2.32422 43.1458 2.32422 39.1094V36.375C2.32422 33.7318 2.79297 31.4076 3.73047 29.4023C4.68099 27.3971 6.02214 25.8607 7.75391 24.793C9.48568 23.7122 11.4909 23.1719 13.7695 23.1719C16.7904 23.1719 19.2122 24.0182 21.0352 25.7109C22.8581 27.3906 23.9193 29.7214 24.2188 32.7031H20.4492C20.1237 30.4375 19.4141 28.7969 18.3203 27.7812C17.2396 26.7656 15.7227 26.2578 13.7695 26.2578C11.3737 26.2578 9.49219 27.1432 8.125 28.9141C6.77083 30.6849 6.09375 33.2044 6.09375 36.4727V39.2266C6.09375 42.3125 6.73828 44.7669 8.02734 46.5898C9.31641 48.4128 11.1198 49.3242 13.4375 49.3242C15.5208 49.3242 17.1159 48.8555 18.2227 47.918C19.3424 46.9674 20.0846 45.3203 20.4492 42.9766H24.2188Z" fill="#ffffff"/>
</svg>

<svg width="46" height="62" fill="none" xmlns="http://www.w3.org/2000/svg"><path d="M11.476 62V14.367H24.79c3.904 0 7.404.894 10.501 2.683 3.097 1.766 5.507 4.307 7.23 7.622 1.745 3.316 2.617 7.089 2.617 11.32v4.384c0 4.252-.861 8.026-2.584 11.319-1.723 3.293-4.155 5.834-7.296 7.622C32.141 61.106 28.553 62 24.496 62h-13.02zM15.5 17.802v40.796h9.029c5.016 0 9.04-1.658 12.072-4.973 3.031-3.337 4.547-7.84 4.547-13.511v-4.188c0-5.474-1.494-9.858-4.482-13.151-2.988-3.293-6.925-4.95-11.81-4.973H15.5z" fill="#fff"/><path d="M24.219 42.977c-.352 3.007-1.465 5.332-3.34 6.972-1.862 1.628-4.343 2.442-7.442 2.442-3.359 0-6.054-1.205-8.085-3.614-2.019-2.409-3.028-5.631-3.028-9.668v-2.734c0-2.643.469-4.967 1.406-6.973.951-2.005 2.292-3.541 4.024-4.609 1.732-1.08 3.737-1.621 6.016-1.621 3.02 0 5.442.846 7.265 2.539 1.823 1.68 2.884 4.01 3.184 6.992h-3.77c-.325-2.266-1.035-3.906-2.129-4.922-1.08-1.015-2.597-1.523-4.55-1.523-2.396 0-4.278.885-5.645 2.656-1.354 1.77-2.031 4.29-2.031 7.559v2.754c0 3.086.644 5.54 1.933 7.363 1.29 1.823 3.093 2.734 5.41 2.734 2.084 0 3.679-.468 4.786-1.406 1.12-.95 1.862-2.598 2.226-4.941h3.77z" fill="#fff"/></svg>
